X: 2
T: Turkey In The Straw
R: reel
M: 4/4
L: 1/8
K: Dmaj
d B2 c BAFG | ABAF ABde | fefg afde | f e2 d egfe |d B2 c BAFG | ABAF ABde | f a2 b afde | fdec d2 ||f a2 b afde | faab agfe | fabc' d'c'ba | babc' d'2 bc' |d'c'd'b ad'ba | faed B2 de | faed BAFG | A d2 e d2 |]


Tune 2638	Setting 26962

